icons/ocr.svg

<?xml version="1.0" encoding="UTF-8" standalone="no"?>
<svg
   xmlns:dc="http://purl.org/dc/elements/1.1/"
   xmlns:cc="http://creativecommons.org/ns#"
   xmlns:rdf="http://www.w3.org/1999/02/22-rdf-syntax-ns#"
   xmlns:svg="http://www.w3.org/2000/svg"
   xmlns="http://www.w3.org/2000/svg"
   xmlns:sodipodi="http://sodipodi.sourceforge.net/DTD/sodipodi-0.dtd"
   xmlns:inkscape="http://www.inkscape.org/namespaces/inkscape"
   viewBox="0 0 48 48"
   version="1.1"
   id="svg8"
   sodipodi:docname="ocr.svg"
   inkscape:version="1.0.2 (e86c870879, 2021-01-15)">
  <style
     id="style2" />
  <metadata
     id="metadata12">
    <rdf:RDF>
      <cc:Work
         rdf:about="">
        <dc:format>image/svg+xml</dc:format>
        <dc:type
           rdf:resource="http://purl.org/dc/dcmitype/StillImage" />
        <dc:title></dc:title>
      </cc:Work>
    </rdf:RDF>
  </metadata>
  <sodipodi:namedview
     pagecolor="#595959"
     bordercolor="#666666"
     borderopacity="1"
     objecttolerance="10"
     gridtolerance="10"
     guidetolerance="10"
     inkscape:pageopacity="0"
     inkscape:pageshadow="2"
     inkscape:window-width="3840"
     inkscape:window-height="2096"
     id="namedview10"
     showgrid="false"
     showguides="true"
     inkscape:guide-bbox="true"
     inkscape:zoom="39.0625"
     inkscape:cx="24"
     inkscape:cy="24"
     inkscape:window-x="0"
     inkscape:window-y="27"
     inkscape:window-maximized="1"
     inkscape:current-layer="svg8"
     inkscape:document-rotation="0" />
  <defs
     id="defs4">
    <style
       id="style6">.a{fill:none;stroke:#fff;stroke-linecap:round;stroke-linejoin:round;}</style>
  </defs>
  <path
     id="rect9766-10"
     style="fill:none;fill-opacity:1;stroke:#ffffff;stroke-width:0.904663;stroke-linecap:round;stroke-linejoin:round;stroke-miterlimit:4;stroke-dasharray:none;stroke-dashoffset:0;stroke-opacity:0.998188"
     d="M 38.301867 29.289037 L 9.6697859 29.289036 C 9.0371942 29.289036 8.5279236 28.779765 8.5279236 28.147173 L 8.5279236 27.855689 C 8.5279236 27.223098 9.0371942 26.713827 9.6697859 26.713827 L 9.6697859 26.713827 " />
  <path
     id="path13618"
     style="fill:none;fill-opacity:1;stroke:#ffffff;stroke-width:0.904663;stroke-linecap:round;stroke-linejoin:round;stroke-miterlimit:4;stroke-dasharray:none;stroke-dashoffset:0;stroke-opacity:0.998188"
     d="M 39.083401 29.248712 C 38.986964 29.275006 38.885365 29.289036 38.780369 29.289036 L 38.301867 29.289037 " />
  <path
     id="path13643"
     style="fill:none;fill-opacity:1;stroke:#ffffff;stroke-width:0.904663;stroke-linecap:round;stroke-linejoin:round;stroke-miterlimit:4;stroke-dasharray:none;stroke-dashoffset:0;stroke-opacity:0.998188"
     d="m 38.780369,26.713827 c 0.632592,0 1.141863,0.509271 1.141863,1.141862 v 0.291484 c 0,0.527596 -0.354245,0.96941 -0.838831,1.101539"
     sodipodi:nodetypes="cssc" />
  <path
     id="path13613"
     style="fill:none;fill-opacity:1;stroke:#ffffff;stroke-width:0.904663;stroke-linecap:round;stroke-linejoin:round;stroke-miterlimit:4;stroke-dasharray:none;stroke-dashoffset:0;stroke-opacity:0.998188"
     d="m 29.593685,26.713827 1.808777,1e-6"
     sodipodi:nodetypes="cc" />
  <path
     id="path13583"
     style="fill:none;fill-opacity:1;stroke:#ffffff;stroke-width:0.904663;stroke-linecap:round;stroke-linejoin:round;stroke-miterlimit:4;stroke-dasharray:none;stroke-dashoffset:0;stroke-opacity:0.998188"
     d="m 17.945479,26.713827 3.090154,0"
     sodipodi:nodetypes="cc" />
  <path
     style="fill:none;stroke:#ffffff;stroke-width:0.999996px;stroke-linecap:round;stroke-linejoin:round;stroke-opacity:0.998188"
     d="M 17.248014,5.8291203 H 5.6172548 V 18.28178"
     id="path9750" />
  <path
     style="fill:none;stroke:#ffffff;stroke-width:0.999996px;stroke-linecap:round;stroke-linejoin:round;stroke-opacity:0.998188"
     d="M 5.4999999,29.798399 V 42.368238 H 16.866726"
     id="path9752" />
  <path
     style="fill:none;stroke:#ffffff;stroke-width:0.999996px;stroke-linecap:round;stroke-linejoin:round;stroke-opacity:0.998188"
     d="M 31.049947,42.5 H 42.500003 V 30.021271"
     id="path9754" />
  <path
     style="fill:none;stroke:#ffffff;stroke-width:0.999996px;stroke-linecap:round;stroke-linejoin:round;stroke-opacity:0.998188"
     d="M 42.469564,18.170925 V 5.4999978 H 30.915129"
     id="path9756" />
  <rect
     style="fill:none;fill-opacity:1;stroke:#ffffff;stroke-width:0.904663;stroke-linecap:round;stroke-linejoin:round;stroke-miterlimit:4;stroke-dasharray:none;stroke-dashoffset:0;stroke-opacity:0.998188"
     id="rect9766"
     width="31.394308"
     height="2.5752084"
     x="8.5279236"
     y="9.8784618"
     ry="1.1418623" />
  <path
     id="rect9766-1"
     style="fill:none;fill-opacity:1;stroke:#ffffff;stroke-width:0.904663;stroke-linecap:round;stroke-linejoin:round;stroke-miterlimit:4;stroke-dasharray:none;stroke-dashoffset:0;stroke-opacity:0.998188"
     d="m 21.201644,20.871355 -3.414364,0"
     sodipodi:nodetypes="cc" />
  <path
     id="path13573"
     style="fill:none;fill-opacity:1;stroke:#ffffff;stroke-width:0.904663;stroke-linecap:round;stroke-linejoin:round;stroke-miterlimit:4;stroke-dasharray:none;stroke-dashoffset:0;stroke-opacity:0.998188"
     d="m 31.402461,20.871355 -1.833462,0"
     sodipodi:nodetypes="cc" />
  <path
     id="path13608"
     style="fill:none;fill-opacity:1;stroke:#ffffff;stroke-width:0.904663;stroke-linecap:round;stroke-linejoin:round;stroke-miterlimit:4;stroke-dasharray:none;stroke-dashoffset:0;stroke-opacity:0.998188"
     d="m 9.6697859,20.871355 c -0.6325917,0 -1.1418623,-0.509271 -1.1418623,-1.141862 v -0.291484 c 0,-0.632592 0.5092706,-1.141863 1.1418623,-1.141863 v 0 H 38.780369 c 0.632592,0 1.141863,0.509271 1.141863,1.141863 v 0.291484 c 0,0.632591 -0.509271,1.141862 -1.141863,1.141862"
     sodipodi:nodetypes="cssscsssc" />
  <rect
     style="fill:none;fill-opacity:1;stroke:#ffffff;stroke-width:0.801401;stroke-linecap:round;stroke-linejoin:round;stroke-miterlimit:4;stroke-dasharray:none;stroke-dashoffset:0;stroke-opacity:0.998188"
     id="rect9766-3"
     width="23.561884"
     height="2.6926415"
     x="8.4690475"
     y="35.072796"
     ry="1.1939327" />
  <ellipse
     style="fill:none;fill-opacity:1;stroke:#ffffff;stroke-width:0.815178;stroke-linecap:round;stroke-linejoin:round;stroke-miterlimit:4;stroke-dasharray:none;stroke-dashoffset:0;stroke-opacity:0.998188"
     id="path9758-4"
     cx="13.612606"
     cy="23.723108"
     rx="3.6427679"
     ry="3.8642416" />
  <path
     style="fill:none;stroke:#ffffff;stroke-width:0.852564px;stroke-linecap:round;stroke-linejoin:round;stroke-opacity:0.998188"
     d="m 27.953685,20.857348 c 0,0 -0.865608,-0.942931 -2.348426,-0.942931 -1.853617,0 -3.481047,1.019296 -3.568663,3.735797 -0.08762,2.716502 1.578739,3.933483 3.555526,3.933483 1.277452,0 2.456835,-1.088605 2.456835,-1.088605"
     id="path9760-0"
     sodipodi:nodetypes="cszsc" />
  <g
     id="g13652">
    <path
       style="fill:none;stroke:#ffffff;stroke-width:0.999998px;stroke-linecap:round;stroke-linejoin:round;stroke-opacity:0.998188"
       d="M 37.448092,27.558786 C 36.707076,24.846299 36.272084,24.40436 35.05475,23.315015"
       id="path9764"
       sodipodi:nodetypes="cc" />
    <path
       style="fill:none;stroke:#ffffff;stroke-width:0.999998px;stroke-linecap:round;stroke-linejoin:round;stroke-opacity:1"
       d="m 32.919368,27.559301 0.103438,-7.666488 h 2.742303 c 1.553122,0 1.545005,3.391869 0,3.391869 h -2.767866"
       id="path9855"
       sodipodi:nodetypes="ccssc" />
  </g>
</svg>

<?xml version="1.0" encoding="UTF-8"?>
<svg version="1.1" viewBox="0 0 48 48" xmlns="http://www.w3.org/2000/svg">
    <style/>
    <defs>
        <style>.a{fill:none;stroke:#fff;stroke-linecap:round;stroke-linejoin:round;}</style>
    </defs>
    <path d="m38.302 29.289-28.632-1e-6c-0.63259 0-1.1419-0.50927-1.1419-1.1419v-0.29148c0-0.63259 0.50927-1.1419 1.1419-1.1419v0" fill="none" stroke="#fff" stroke-linecap="round" stroke-linejoin="round" stroke-opacity=".99819" stroke-width=".90466"/>
    <path d="m39.083 29.249c-0.096437 0.026294-0.19804 0.040324-0.30303 0.040324l-0.4785 1e-6" fill="none" stroke="#fff" stroke-linecap="round" stroke-linejoin="round" stroke-opacity=".99819" stroke-width=".90466"/>
    <path d="m38.78 26.714c0.63259 0 1.1419 0.50927 1.1419 1.1419v0.29148c0 0.5276-0.35424 0.96941-0.83883 1.1015" fill="none" stroke="#fff" stroke-linecap="round" stroke-linejoin="round" stroke-opacity=".99819" stroke-width=".90466"/>
    <path d="m29.594 26.714 1.8088 1e-6" fill="none" stroke="#fff" stroke-linecap="round" stroke-linejoin="round" stroke-opacity=".99819" stroke-width=".90466"/>
    <path d="m17.945 26.714h3.0902" fill="none" stroke="#fff" stroke-linecap="round" stroke-linejoin="round" stroke-opacity=".99819" stroke-width=".90466"/>
    <path d="m17.248 5.8291h-11.631v12.453" fill="none" stroke="#fff" stroke-linecap="round" stroke-linejoin="round" stroke-opacity=".99819" stroke-width="1px"/>
    <path d="m5.5 29.798v12.57h11.367" fill="none" stroke="#fff" stroke-linecap="round" stroke-linejoin="round" stroke-opacity=".99819" stroke-width="1px"/>
    <path d="m31.05 42.5h11.45v-12.479" fill="none" stroke="#fff" stroke-linecap="round" stroke-linejoin="round" stroke-opacity=".99819" stroke-width="1px"/>
    <path d="m42.47 18.171v-12.671h-11.554" fill="none" stroke="#fff" stroke-linecap="round" stroke-linejoin="round" stroke-opacity=".99819" stroke-width="1px"/>
    <rect x="8.5279" y="9.8785" width="31.394" height="2.5752" ry="1.1419" fill="none" stroke="#fff" stroke-linecap="round" stroke-linejoin="round" stroke-opacity=".99819" stroke-width=".90466"/>
    <path d="m21.202 20.871h-3.4144" fill="none" stroke="#fff" stroke-linecap="round" stroke-linejoin="round" stroke-opacity=".99819" stroke-width=".90466"/>
    <path d="m31.402 20.871h-1.8335" fill="none" stroke="#fff" stroke-linecap="round" stroke-linejoin="round" stroke-opacity=".99819" stroke-width=".90466"/>
    <path d="m9.6698 20.871c-0.63259 0-1.1419-0.50927-1.1419-1.1419v-0.29148c0-0.63259 0.50927-1.1419 1.1419-1.1419v0h29.111c0.63259 0 1.1419 0.50927 1.1419 1.1419v0.29148c0 0.63259-0.50927 1.1419-1.1419 1.1419" fill="none" stroke="#fff" stroke-linecap="round" stroke-linejoin="round" stroke-opacity=".99819" stroke-width=".90466"/>
    <rect x="8.469" y="35.073" width="23.562" height="2.6926" ry="1.1939" fill="none" stroke="#fff" stroke-linecap="round" stroke-linejoin="round" stroke-opacity=".99819" stroke-width=".8014"/>
    <ellipse cx="13.613" cy="23.723" rx="3.6428" ry="3.8642" fill="none" stroke="#fff" stroke-linecap="round" stroke-linejoin="round" stroke-opacity=".99819" stroke-width=".81518"/>
    <path d="m27.954 20.857s-0.86561-0.94293-2.3484-0.94293c-1.8536 0-3.481 1.0193-3.5687 3.7358-0.08762 2.7165 1.5787 3.9335 3.5555 3.9335 1.2775 0 2.4568-1.0886 2.4568-1.0886" fill="none" stroke="#fff" stroke-linecap="round" stroke-linejoin="round" stroke-opacity=".99819" stroke-width=".85256px"/>
    <g fill="none" stroke="#fff" stroke-linecap="round" stroke-linejoin="round" stroke-width="1px">
        <path d="m37.448 27.559c-0.74102-2.7125-1.176-3.1544-2.3933-4.2438" stroke-opacity=".99819"/>
        <path d="m32.919 27.559 0.10344-7.6665h2.7423c1.5531 0 1.545 3.3919 0 3.3919h-2.7679"/>
    </g>
</svg>
